X:585
T:Planxty Hewlett
M:3/4
L:1/8
C:Turlough O'Carolan
H:For the dance "An Enchanted Place" by Antony Heywood
H:For the dance "The Log Cabin" by Robin Rogers-Browne in "Legacy"
%%MIDI beat 100 95 80
S:Colin Hume's website,  colinhume.com  - chords can also be printed below the stave.
Q:1/4=112
K:D
P:A
|: "A7"AF | "D"D2 DE FG | "A/C#"AB c2 A2 | "Bm"d2 f2 fg | "D/A"x4 "G"x2 & fe d3B |\
"D"A2 F2 F2 | "Em"G3B AG | "D/F#"AF D2 "G"D2 | "D"D4 :|
P:B
FG | "D"A2 F2 AB | "D/C#"A2 F2 AB | "D/B"A2 d2 d2 | "D/A"dc BA GF |\
"Em"G2 E2 GA | "Em/D"G2 E2 EF | "A/C#"GF GB AG | "D"x4 "A7/C#"x2 & AF D3E |
"D"FE F2 G2 | "A"AB c2 A2 | "Bm"fe fg ag | "D/A"x4 "G"x2 & fe d3B |\
"D"A2 F2 F2 | "Em"G3B AG | "D/F#"AF D2 "G"D2 | "D"D4 |]

